client/public/themes/olympus/images/buttons/visibility/groundunit-other.svg

<?xml version="1.0" encoding="UTF-8" standalone="no"?>
<svg
   width="19"
   height="13.95722"
   viewBox="0 0 19 13.95722"
   fill="none"
   version="1.1"
   id="svg7251"
   sodipodi:docname="groundunit-other.svg"
   inkscape:version="1.2.2 (732a01da63, 2022-12-09)"
   xmlns:inkscape="http://www.inkscape.org/namespaces/inkscape"
   xmlns:sodipodi="http://sodipodi.sourceforge.net/DTD/sodipodi-0.dtd"
   xmlns="http://www.w3.org/2000/svg"
   xmlns:svg="http://www.w3.org/2000/svg">
  <sodipodi:namedview
     id="namedview7253"
     pagecolor="#ffffff"
     bordercolor="#666666"
     borderopacity="1.0"
     inkscape:showpageshadow="2"
     inkscape:pageopacity="0.0"
     inkscape:pagecheckerboard="0"
     inkscape:deskcolor="#d1d1d1"
     showgrid="false"
     inkscape:zoom="26.15625"
     inkscape:cx="3.4217443"
     inkscape:cy="6.9964158"
     inkscape:window-width="1920"
     inkscape:window-height="1017"
     inkscape:window-x="1912"
     inkscape:window-y="-8"
     inkscape:window-maximized="1"
     inkscape:current-layer="svg7251" />
  <g
     clip-path="url(#clip0_277_1733)"
     id="g7244"
     transform="translate(-6.5,-9.02148)">
    <path
       stroke-width="0"
       d="M 22.4511,18.3916 H 9.54882 c -0.94882,0 -1.7207,0.7719 -1.7207,1.7207 0,0.0262 7.8e-4,0.0522 0.00201,0.0782 3.7e-4,0.0083 8.5e-4,0.0165 0.00133,0.0248 0.00108,0.0183 0.00249,0.0365 0.00416,0.0547 7.8e-4,0.0088 0.00145,0.0175 0.00241,0.0262 0.00253,0.0232 0.00542,0.0464 0.00887,0.0694 0.00175,0.0116 0.00382,0.0231 0.00579,0.0347 0.00215,0.0125 0.00431,0.025 0.00672,0.0374 0.0026,0.0135 0.0053,0.0269 0.0082,0.0403 0.00211,0.0097 0.00442,0.0193 0.00672,0.029 0.00679,0.0289 0.01428,0.0574 0.02252,0.0857 0.00141,0.0049 0.00275,0.0098 0.0042,0.0147 0.0046,0.0154 0.00957,0.0305 0.01454,0.0456 0.00249,0.0075 0.00505,0.015 0.00761,0.0225 0.00519,0.0148 0.01043,0.0297 0.01599,0.0444 0.00245,0.0065 0.00509,0.0128 0.00757,0.0192 0.00984,0.0251 0.02023,0.0499 0.03118,0.0744 0.00434,0.0097 0.00864,0.0194 0.01317,0.0291 0.00538,0.0113 0.01087,0.0226 0.01648,0.0339 0.00605,0.0122 0.01228,0.0242 0.01863,0.0363 0.00467,0.0089 0.00935,0.0179 0.01417,0.0267 0.01151,0.021 0.02342,0.0417 0.03577,0.0622 0.0019,0.0031 0.00386,0.0061 0.00579,0.0092 0.01199,0.0195 0.02435,0.0387 0.03708,0.0578 0.00226,0.0033 0.00445,0.0066 0.00671,0.01 0.16714,0.246 0.39785,0.4493 0.67532,0.5833 0.00334,0.0016 0.00675,0.0031 0.01013,0.0047 0.01321,0.0062 0.02639,0.0126 0.03982,0.0186 l 0.01124,0.0045 c 0.03158,0.0138 0.06346,0.027 0.09601,0.0389 l 2.61904,1.0608 c 0.004,0.0018 0.0082,0.0032 0.0122,0.005 0.0171,0.0073 0.0346,0.014 0.0518,0.0209 0.018,0.0071 0.0358,0.0146 0.0539,0.0213 0.0179,0.0066 0.0361,0.0126 0.0543,0.0188 0.0182,0.0062 0.0363,0.0128 0.0547,0.0186 0.0156,0.0049 0.0316,0.0091 0.0473,0.0136 0.0213,0.0062 0.0425,0.0127 0.0639,0.0183 0.0103,0.0026 0.0209,0.0048 0.0313,0.0073 0.027,0.0066 0.054,0.0132 0.0813,0.0188 9e-4,2e-4 0.0018,3e-4 0.0026,4e-4 0.1442,0.0295 0.2914,0.0446 0.4407,0.0458 0.0062,0 0.0123,4e-4 0.0184,4e-4 h 1e-4 7.02 c 5e-4,0 9e-4,0 0.0013,0 4e-4,0 9e-4,0 0.0013,0 0.3278,0 0.6394,-0.0695 0.9217,-0.194 l 2.6345,-1.0668 c 0.0208,-0.008 0.0416,-0.0162 0.062,-0.0251 l 0.0015,-6e-4 0.0164,-0.0069 c 0.0134,-0.006 0.0266,-0.0124 0.0398,-0.0186 0.0034,-0.0016 0.0068,-0.0032 0.0102,-0.0047 0.2774,-0.134 0.5082,-0.3373 0.6753,-0.5833 0.0022,-0.0033 0.0045,-0.0067 0.0067,-0.01 0.0127,-0.0191 0.0251,-0.0383 0.0371,-0.0578 0.0019,-0.0031 0.0039,-0.0062 0.0057,-0.0092 0.0124,-0.0205 0.0243,-0.0413 0.0359,-0.0622 0.0048,-0.0089 0.0095,-0.0178 0.0141,-0.0267 0.0064,-0.0121 0.0126,-0.0241 0.0187,-0.0363 0.0056,-0.0113 0.0111,-0.0225 0.0164,-0.0339 0.0045,-0.0097 0.0089,-0.0194 0.0132,-0.0291 0.011,-0.0245 0.0214,-0.0493 0.0312,-0.0744 0.0025,-0.0064 0.0052,-0.0128 0.0076,-0.0192 0.0056,-0.0147 0.0108,-0.0296 0.016,-0.0445 0.0026,-0.0074 0.0051,-0.0149 0.0076,-0.0224 0.005,-0.0152 0.01,-0.0303 0.0145,-0.0456 0.0015,-0.0049 0.0028,-0.0099 0.0042,-0.0148 0.0082,-0.0282 0.0158,-0.0568 0.0226,-0.0856 0.0023,-0.0097 0.0045,-0.0193 0.0067,-0.0291 0.0029,-0.0133 0.0056,-0.0267 0.0082,-0.0402 0.0024,-0.0125 0.0045,-0.025 0.0067,-0.0375 0.002,-0.0115 0.004,-0.023 0.0058,-0.0346 0.0034,-0.0231 0.0063,-0.0462 0.0089,-0.0695 9e-4,-0.0087 0.0015,-0.0174 0.0024,-0.0261 0.0017,-0.0182 0.003,-0.0364 0.0041,-0.0548 5e-4,-0.0082 0.001,-0.0164 0.0014,-0.0247 0.0011,-0.026 0.002,-0.0521 0.002,-0.0782 3e-4,-0.9488 -0.7716,-1.7207 -1.7204,-1.7207 z M 9.54882,20.7573 c -0.08283,0 -0.16184,-0.0162 -0.23465,-0.0448 L 9.29001,20.7027 C 9.27506,20.6961 9.26033,20.6891 9.24604,20.6814 9.24433,20.6806 9.24251,20.6798 9.24081,20.6788 9.224,20.6696 9.20767,20.6596 9.19179,20.649 9.18856,20.6468 9.18544,20.6446 9.18225,20.6423 9.16933,20.6333 9.15675,20.624 9.14458,20.6141 9.14139,20.6116 9.13816,20.609 9.13505,20.6064 9.10599,20.5821 9.07916,20.5552 9.05481,20.5261 9.05177,20.5225 9.04888,20.5188 9.04591,20.5151 9.03704,20.5041 9.02858,20.4927 9.02041,20.4811 9.01722,20.4766 9.01399,20.472 9.01091,20.4674 9.00104,20.4525 8.99162,20.4373 8.98301,20.4215 8.98082,20.4176 8.979,20.4134 8.97689,20.4094 8.97054,20.3972 8.96449,20.3848 8.95896,20.3722 8.95596,20.3654 8.95313,20.3586 8.95039,20.3517 8.94594,20.3405 8.94178,20.3292 8.93792,20.3177 8.93577,20.3114 8.93347,20.3052 8.93154,20.2987 8.92642,20.2818 8.922,20.2647 8.91825,20.2472 8.91706,20.2415 8.91614,20.2357 8.9151,20.23 8.91254,20.2163 8.91042,20.2025 8.90875,20.1886 8.90805,20.1826 8.90734,20.1766 8.90679,20.1707 8.90504,20.1515 8.90382,20.1321 8.90382,20.1124 c 0,-0.3556 0.2893,-0.645 0.64496,-0.645 0.35566,0 0.64492,0.2893 0.64492,0.645 0,0.3557 -0.28923,0.6449 -0.64488,0.6449 z m 2.94108,1.1456 c -0.0209,0 -0.0419,-5e-4 -0.0626,-0.0015 -0.0607,-0.0031 -0.1202,-0.0107 -0.1782,-0.0224 -0.0015,-3e-4 -0.0031,-6e-4 -0.0046,-9e-4 -0.0156,-0.0032 -0.031,-0.0069 -0.0465,-0.0107 -0.0044,-0.0011 -0.0089,-0.002 -0.0133,-0.0032 -0.0132,-0.0034 -0.0263,-0.0073 -0.0394,-0.0112 -0.0066,-0.0019 -0.0132,-0.0037 -0.0198,-0.0058 -0.0115,-0.0036 -0.0228,-0.0076 -0.0341,-0.0116 -0.008,-0.0028 -0.0161,-0.0054 -0.0241,-0.0084 -0.0106,-0.004 -0.0211,-0.0083 -0.0317,-0.0125 -0.0083,-0.0034 -0.0166,-0.0067 -0.0249,-0.0102 -0.4339,-0.1865 -0.7386,-0.6179 -0.7386,-1.1194 0,-0.6715 0.5463,-1.2178 1.2178,-1.2178 0.6715,0 1.2178,0.5463 1.2178,1.2178 0,0.6715 -0.5463,1.2178 -1.2178,1.2178 z m 3.5114,0 c -0.6715,0 -1.2178,-0.5463 -1.2178,-1.2177 0,-0.6715 0.5463,-1.2178 1.2178,-1.2178 0.6715,0 1.2177,0.5463 1.2177,1.2178 0,0.6714 -0.5462,1.2177 -1.2177,1.2177 z m 4.0176,-0.1106 -0.0067,0.0027 -0.0141,0.006 c -0.154,0.0675 -0.3178,0.1017 -0.4867,0.1019 -0.6709,-6e-4 -1.2165,-0.5466 -1.2165,-1.2177 0,-0.6715 0.5463,-1.2178 1.2178,-1.2178 0.6715,0 1.2177,0.5463 1.2177,1.2178 0,0.4908 -0.2922,0.9145 -0.7115,1.1071 z m 3.0742,-1.6217 c -5e-4,0.006 -0.0012,0.0119 -0.0019,0.0179 -0.0017,0.0139 -0.0038,0.0277 -0.0064,0.0414 -0.0011,0.0057 -0.0019,0.0116 -0.0032,0.0173 -0.0037,0.0174 -0.0081,0.0345 -0.0132,0.0514 -0.002,0.0065 -0.0043,0.0127 -0.0064,0.0191 -0.0039,0.0115 -0.008,0.0228 -0.0125,0.0339 -0.0027,0.0069 -0.0056,0.0137 -0.0085,0.0205 -0.0056,0.0126 -0.0117,0.0251 -0.018,0.0372 -0.0021,0.004 -0.0039,0.0081 -0.0061,0.0122 -0.0086,0.0157 -0.018,0.0309 -0.0278,0.0458 -0.0031,0.0047 -0.0064,0.0092 -0.0096,0.0137 -0.0081,0.0117 -0.0165,0.023 -0.0254,0.034 -0.003,0.0037 -0.0059,0.0074 -0.0089,0.0111 -0.0244,0.029 -0.0513,0.0558 -0.0803,0.0802 -0.0031,0.0027 -0.0063,0.0052 -0.0095,0.0077 -0.0122,0.0099 -0.0248,0.0193 -0.0376,0.0282 -0.0032,0.0022 -0.0064,0.0045 -0.0096,0.0067 -0.0159,0.0106 -0.0322,0.0206 -0.049,0.0298 -0.0017,0.001 -0.0035,0.0018 -0.0052,0.0027 -0.0143,0.0076 -0.0291,0.0146 -0.044,0.0212 l -0.0242,0.0098 c -0.0728,0.0286 -0.1518,0.0449 -0.2346,0.0449 -0.3556,0 -0.6449,-0.2894 -0.6449,-0.645 0,-0.3557 0.2893,-0.645 0.6449,-0.645 0.3556,0 0.645,0.2893 0.645,0.645 -10e-5,0.0197 -0.0014,0.0391 -0.0031,0.0583 z"
       fill="#202831"
       id="path7240" />
    <path
       stroke-width="0"
       d="m 22.4512,16.24 h -0.2576 l -2.4577,-2.347 h -1.3966 c -0.0568,-0.302 -0.1624,-0.5869 -0.3087,-0.8462 l 4.9226,-2.0396 0.2046,0.4939 1.0403,-0.431 -0.2047,-0.4939 1.2418,-0.5145 L 24.8042,9.02148 23.5624,9.5359 23.3578,9.04204 22.3176,9.473 22.5222,9.96688 17.2366,12.1569 C 16.7786,11.8245 16.216,11.6278 15.608,11.6278 h -2.0945 c -1.357,0 -2.4892,0.9775 -2.7314,2.2652 H 9.06456 v 2.3771 C 8.05574,16.3958 7.13969,16.9114 6.5,17.7281 l 0.84687,0.6634 C 7.88236,17.7078 8.68493,17.3157 9.54888,17.3157 H 22.4511 c 0.864,0 1.6665,0.3921 2.202,1.0758 L 25.5,17.7281 C 24.7593,16.7824 23.648,16.24 22.4512,16.24 Z"
       fill="#202831"
       id="path7242" />
  </g>
  <defs
     id="defs7249">
    <clipPath
       id="clip0_277_1733">
      <rect
         stroke-width="0"
         width="19"
         height="19"
         fill="#ffffff"
         transform="translate(6.5,6.5)"
         id="rect7246"
         x="0"
         y="0" />
    </clipPath>
  </defs>
</svg>

<svg width="32" height="32" viewBox="0 0 32 32" fill="none" xmlns="http://www.w3.org/2000/svg">
<rect class="background" x="0.5" y="0.5" width="31" height="31" rx="7.5" fill="white"/>
<g clip-path="url(#clip0_277_1733)">
<path class="foreground" d="M22.4511 18.3916H9.54882C8.6 18.3916 7.82812 19.1635 7.82812 20.1123C7.82812 20.1385 7.8289 20.1645 7.83013 20.1905C7.8305 20.1988 7.83098 20.207 7.83146 20.2153C7.83254 20.2336 7.83395 20.2518 7.83562 20.27C7.8364 20.2788 7.83707 20.2875 7.83803 20.2962C7.84056 20.3194 7.84345 20.3426 7.8469 20.3656C7.84865 20.3772 7.85072 20.3887 7.85269 20.4003C7.85484 20.4128 7.857 20.4253 7.85941 20.4377C7.86201 20.4512 7.86471 20.4646 7.86761 20.478C7.86972 20.4877 7.87203 20.4973 7.87433 20.507C7.88112 20.5359 7.88861 20.5644 7.89685 20.5927C7.89826 20.5976 7.8996 20.6025 7.90105 20.6074C7.90565 20.6228 7.91062 20.6379 7.91559 20.653C7.91808 20.6605 7.92064 20.668 7.9232 20.6755C7.92839 20.6903 7.93363 20.7052 7.93919 20.7199C7.94164 20.7264 7.94428 20.7327 7.94676 20.7391C7.9566 20.7642 7.96699 20.789 7.97794 20.8135C7.98228 20.8232 7.98658 20.8329 7.99111 20.8426C7.99649 20.8539 8.00198 20.8652 8.00759 20.8765C8.01364 20.8887 8.01987 20.9007 8.02622 20.9128C8.03089 20.9217 8.03557 20.9307 8.04039 20.9395C8.0519 20.9605 8.06381 20.9812 8.07616 21.0017C8.07806 21.0048 8.08002 21.0078 8.08195 21.0109C8.09394 21.0304 8.1063 21.0496 8.11903 21.0687C8.12129 21.072 8.12348 21.0753 8.12574 21.0787C8.29288 21.3247 8.52359 21.528 8.80106 21.662C8.8044 21.6636 8.80781 21.6651 8.81119 21.6667C8.8244 21.6729 8.83758 21.6793 8.85101 21.6853L8.86225 21.6898C8.89383 21.7036 8.92571 21.7168 8.95826 21.7287L11.5773 22.7895C11.5813 22.7913 11.5855 22.7927 11.5895 22.7945C11.6066 22.8018 11.6241 22.8085 11.6413 22.8154C11.6593 22.8225 11.6771 22.83 11.6952 22.8367C11.7131 22.8433 11.7313 22.8493 11.7495 22.8555C11.7677 22.8617 11.7858 22.8683 11.8042 22.8741C11.8198 22.879 11.8358 22.8832 11.8515 22.8877C11.8728 22.8939 11.894 22.9004 11.9154 22.906C11.9257 22.9086 11.9363 22.9108 11.9467 22.9133C11.9737 22.9199 12.0007 22.9265 12.028 22.9321C12.0289 22.9323 12.0298 22.9324 12.0306 22.9325C12.1748 22.962 12.322 22.9771 12.4713 22.9783C12.4775 22.9783 12.4836 22.9787 12.4897 22.9787H12.4898H19.5098C19.5103 22.9787 19.5107 22.9787 19.5111 22.9787C19.5115 22.9787 19.512 22.9787 19.5124 22.9787C19.8402 22.9787 20.1518 22.9092 20.4341 22.7847L23.0686 21.7179C23.0894 21.7099 23.1102 21.7017 23.1306 21.6928L23.1321 21.6922L23.1485 21.6853C23.1619 21.6793 23.1751 21.6729 23.1883 21.6667C23.1917 21.6651 23.1951 21.6635 23.1985 21.662C23.4759 21.528 23.7067 21.3247 23.8738 21.0787C23.876 21.0754 23.8783 21.072 23.8805 21.0687C23.8932 21.0496 23.9056 21.0304 23.9176 21.0109C23.9195 21.0078 23.9215 21.0047 23.9233 21.0017C23.9357 20.9812 23.9476 20.9604 23.9592 20.9395C23.964 20.9306 23.9687 20.9217 23.9733 20.9128C23.9797 20.9007 23.9859 20.8887 23.992 20.8765C23.9976 20.8652 24.0031 20.854 24.0084 20.8426C24.0129 20.8329 24.0173 20.8232 24.0216 20.8135C24.0326 20.789 24.043 20.7642 24.0528 20.7391C24.0553 20.7327 24.058 20.7263 24.0604 20.7199C24.066 20.7052 24.0712 20.6903 24.0764 20.6754C24.079 20.668 24.0815 20.6605 24.084 20.653C24.089 20.6378 24.094 20.6227 24.0985 20.6074C24.1 20.6025 24.1013 20.5975 24.1027 20.5926C24.1109 20.5644 24.1185 20.5358 24.1253 20.507C24.1276 20.4973 24.1298 20.4877 24.132 20.4779C24.1349 20.4646 24.1376 20.4512 24.1402 20.4377C24.1426 20.4252 24.1447 20.4127 24.1469 20.4002C24.1489 20.3887 24.1509 20.3772 24.1527 20.3656C24.1561 20.3425 24.159 20.3194 24.1616 20.2961C24.1625 20.2874 24.1631 20.2787 24.164 20.27C24.1657 20.2518 24.167 20.2336 24.1681 20.2152C24.1686 20.207 24.1691 20.1988 24.1695 20.1905C24.1706 20.1645 24.1715 20.1384 24.1715 20.1123C24.1718 19.1635 23.3999 18.3916 22.4511 18.3916ZM9.54882 20.7573C9.46599 20.7573 9.38698 20.7411 9.31417 20.7125L9.29001 20.7027C9.27506 20.6961 9.26033 20.6891 9.24604 20.6814C9.24433 20.6806 9.24251 20.6798 9.24081 20.6788C9.224 20.6696 9.20767 20.6596 9.19179 20.649C9.18856 20.6468 9.18544 20.6446 9.18225 20.6423C9.16933 20.6333 9.15675 20.624 9.14458 20.6141C9.14139 20.6116 9.13816 20.609 9.13505 20.6064C9.10599 20.5821 9.07916 20.5552 9.05481 20.5261C9.05177 20.5225 9.04888 20.5188 9.04591 20.5151C9.03704 20.5041 9.02858 20.4927 9.02041 20.4811C9.01722 20.4766 9.01399 20.472 9.01091 20.4674C9.00104 20.4525 8.99162 20.4373 8.98301 20.4215C8.98082 20.4176 8.979 20.4134 8.97689 20.4094C8.97054 20.3972 8.96449 20.3848 8.95896 20.3722C8.95596 20.3654 8.95313 20.3586 8.95039 20.3517C8.94594 20.3405 8.94178 20.3292 8.93792 20.3177C8.93577 20.3114 8.93347 20.3052 8.93154 20.2987C8.92642 20.2818 8.922 20.2647 8.91825 20.2472C8.91706 20.2415 8.91614 20.2357 8.9151 20.23C8.91254 20.2163 8.91042 20.2025 8.90875 20.1886C8.90805 20.1826 8.90734 20.1766 8.90679 20.1707C8.90504 20.1515 8.90382 20.1321 8.90382 20.1124C8.90382 19.7568 9.19312 19.4674 9.54878 19.4674C9.90444 19.4674 10.1937 19.7567 10.1937 20.1124C10.1937 20.4681 9.90447 20.7573 9.54882 20.7573ZM12.4899 21.9029C12.469 21.9029 12.448 21.9024 12.4273 21.9014C12.3666 21.8983 12.3071 21.8907 12.2491 21.879C12.2476 21.8787 12.246 21.8784 12.2445 21.8781C12.2289 21.8749 12.2135 21.8712 12.198 21.8674C12.1936 21.8663 12.1891 21.8654 12.1847 21.8642C12.1715 21.8608 12.1584 21.8569 12.1453 21.853C12.1387 21.8511 12.1321 21.8493 12.1255 21.8472C12.114 21.8436 12.1027 21.8396 12.0914 21.8356C12.0834 21.8328 12.0753 21.8302 12.0673 21.8272C12.0567 21.8232 12.0462 21.8189 12.0356 21.8147C12.0273 21.8113 12.019 21.808 12.0107 21.8045C11.5768 21.618 11.2721 21.1866 11.2721 20.6851C11.2721 20.0136 11.8184 19.4673 12.4899 19.4673C13.1614 19.4673 13.7077 20.0136 13.7077 20.6851C13.7077 21.3566 13.1614 21.9029 12.4899 21.9029ZM16.0013 21.9029C15.3298 21.9029 14.7835 21.3566 14.7835 20.6852C14.7835 20.0137 15.3298 19.4674 16.0013 19.4674C16.6728 19.4674 17.219 20.0137 17.219 20.6852C17.219 21.3566 16.6728 21.9029 16.0013 21.9029ZM20.0189 21.7923L20.0122 21.795L19.9981 21.801C19.8441 21.8685 19.6803 21.9027 19.5114 21.9029C18.8405 21.9023 18.2949 21.3563 18.2949 20.6852C18.2949 20.0137 18.8412 19.4674 19.5127 19.4674C20.1842 19.4674 20.7304 20.0137 20.7304 20.6852C20.7304 21.176 20.4382 21.5997 20.0189 21.7923ZM23.0931 20.1706C23.0926 20.1766 23.0919 20.1825 23.0912 20.1885C23.0895 20.2024 23.0874 20.2162 23.0848 20.2299C23.0837 20.2356 23.0829 20.2415 23.0816 20.2472C23.0779 20.2646 23.0735 20.2817 23.0684 20.2986C23.0664 20.3051 23.0641 20.3113 23.062 20.3177C23.0581 20.3292 23.054 20.3405 23.0495 20.3516C23.0468 20.3585 23.0439 20.3653 23.041 20.3721C23.0354 20.3847 23.0293 20.3972 23.023 20.4093C23.0209 20.4133 23.0191 20.4174 23.0169 20.4215C23.0083 20.4372 22.9989 20.4524 22.9891 20.4673C22.986 20.472 22.9827 20.4765 22.9795 20.481C22.9714 20.4927 22.963 20.504 22.9541 20.515C22.9511 20.5187 22.9482 20.5224 22.9452 20.5261C22.9208 20.5551 22.8939 20.5819 22.8649 20.6063C22.8618 20.609 22.8586 20.6115 22.8554 20.614C22.8432 20.6239 22.8306 20.6333 22.8178 20.6422C22.8146 20.6444 22.8114 20.6467 22.8082 20.6489C22.7923 20.6595 22.776 20.6695 22.7592 20.6787C22.7575 20.6797 22.7557 20.6805 22.754 20.6814C22.7397 20.689 22.7249 20.696 22.71 20.7026L22.6858 20.7124C22.613 20.741 22.534 20.7573 22.4512 20.7573C22.0956 20.7573 21.8063 20.4679 21.8063 20.1123C21.8063 19.7566 22.0956 19.4673 22.4512 19.4673C22.8068 19.4673 23.0962 19.7566 23.0962 20.1123C23.0961 20.132 23.0948 20.1514 23.0931 20.1706Z" fill="#202831"/>
<path class="foreground" d="M22.4512 16.24H22.1936L19.7359 13.893H18.3393C18.2825 13.591 18.1769 13.3061 18.0306 13.0468L22.9532 11.0072L23.1578 11.5011L24.1981 11.0701L23.9934 10.5762L25.2352 10.0617L24.8042 9.02148L23.5624 9.5359L23.3578 9.04204L22.3176 9.473L22.5222 9.96688L17.2366 12.1569C16.7786 11.8245 16.216 11.6278 15.608 11.6278H13.5135C12.1565 11.6278 11.0243 12.6053 10.7821 13.893H9.06456V16.2701C8.05574 16.3958 7.13969 16.9114 6.5 17.7281L7.34687 18.3915C7.88236 17.7078 8.68493 17.3157 9.54888 17.3157H22.4511C23.3151 17.3157 24.1176 17.7078 24.6531 18.3915L25.5 17.7281C24.7593 16.7824 23.648 16.24 22.4512 16.24Z" fill="#202831"/>
</g>
<rect x="0.5" y="0.5" width="31" height="31" rx="7.5" stroke="white"/>
<defs>
<clipPath id="clip0_277_1733">
<rect class="foreground" width="19" height="19" fill="white" transform="translate(6.5 6.5)"/>
</clipPath>
</defs>
</svg>
